shared/images/iconfont/32-kb-iconfont-fire-16.svg

<?xml version="1.0" encoding="UTF-8"?>
<svg width="16px" height="16px" viewBox="0 0 16 16" version="1.1" xmlns="http://www.w3.org/2000/svg" xmlns:xlink="http://www.w3.org/1999/xlink">
    <!-- Generator: sketchtool 57.1 (101010) - https://sketch.com -->
    <title>13B90054-F7BF-4AC0-B6CD-3C2A8D9D1B79</title>
    <desc>Created with sketchtool.</desc>
    <g id="Symbols" stroke="none" stroke-width="1" fill="none" fill-rule="evenodd">
        <g id="32-kb-iconfont-fire-16">
            <g>
                <rect id="icon-area" opacity="0" x="0" y="0" width="16" height="16"></rect>
                <path d="M10.5454545,1.45454545 C10.5454545,1.45454545 9.75177455,2.17187636 8.77095273,3.25426182 C7.86325417,2.10242931 6.87662135,1.01505693 5.81818182,0 C5.81818182,0 0,5.41228364 0,9.33700364 C0,13.2599127 2.3924,16 5.81818182,16 L10.5454545,16 C13.7570909,16 16,13.5092291 16,9.94282909 C16,6.37499636 10.5454545,1.45454545 10.5454545,1.45454545 Z M10.1818182,13.8181818 L6.54545455,13.8181818 C5.75597046,13.8477014 4.99056497,13.5433293 4.43694893,12.9797108 C3.8833329,12.4160923 3.59271362,11.6453599 3.63636364,10.8565309 C3.63636364,9.11253091 6.11381091,6.30397818 6.21963636,6.18465455 L6.54545455,5.81818182 L6.87127273,6.18465455 C7.6786304,7.10544798 8.37928009,8.11458095 8.95986909,9.19282182 C9.26036915,8.73720735 9.58678273,8.29922347 9.93749818,7.88103273 L10.1818182,7.59587636 L10.4261382,7.88103273 C10.50552,7.97372364 12.3636364,10.1580218 12.3636364,11.5145527 C12.4075735,12.1166401 12.1960825,12.7094188 11.7809559,13.1477219 C11.3658293,13.586025 10.7854028,13.8293766 10.1818182,13.8181818 L10.1818182,13.8181818 Z" id="fire" fill="#000000"></path>
            </g>
        </g>
    </g>
</svg>

<svg xmlns="http://www.w3.org/2000/svg" width="16" height="16" viewBox="0 0 16 16">
    <path fill="#000" fill-rule="nonzero" d="M10.545 1.455s-.793.717-1.774 1.8A31.66 31.66 0 0 0 5.818 0S0 5.412 0 9.337C0 13.26 2.392 16 5.818 16h4.727C13.757 16 16 13.51 16 9.943c0-3.568-5.455-8.488-5.455-8.488zm-.363 12.363H6.545a2.808 2.808 0 0 1-2.909-2.961c0-1.744 2.478-4.553 2.584-4.672l.325-.367.326.367c.808.92 1.508 1.93 2.089 3.008.3-.456.627-.894.977-1.312l.245-.285.244.285c.08.093 1.938 2.277 1.938 3.634a2.148 2.148 0 0 1-2.182 2.303z"/>
</svg>
